avogadro/qtplugins/templatetool/centers/7-pbp.svg

<svg xmlns="http://www.w3.org/2000/svg" xmlns:xlink="http://www.w3.org/1999/xlink" width="35" height="34" viewBox="0 0 35 34" style="background-color:#ffffff00" version="1.1"><path fill="#000" stroke="none" d="M 5132.95,3341.25 L 5145.02,3335.24 L 5139.01,3366.19 L 5083.44,3504.42 L 5031.27,3474.79 L 5132.95,3341.25 Z" transform="matrix(0.05 0 0 0.05 -239 -150)"/><path fill="#000" stroke="none" d="M 5139.01,3329.22 L 5145.02,3335.24 L 5132.95,3341.25 L 4834.38,3341.25 L 4834.38,3329.22 L 5139.01,3329.22 Z" transform="matrix(0.05 0 0 0.05 -239 -150)"/><path fill="#000" stroke="none" d="M 5151.04,3344.5 L 5145.02,3335.24 L 5151.04,3330.61 L 5427.04,3402.7 L 5407.12,3459.3 L 5151.04,3344.5 Z" transform="matrix(0.05 0 0 0.05 -239 -150)"/><path fill="#000" stroke="none" d="M 5125.35,3288.65 L 5114.9,3294.61 L 5106.97,3285.28 L 5121.35,3277.08 L 5125.35,3288.65 Z" transform="matrix(0.05 0 0 0.05 -239 -150)"/><path fill="#000" stroke="none" d="M 5106.14,3233.1 L 5076.83,3249.84 L 5068.9,3240.51 L 5102.14,3221.53 L 5106.14,3233.1 Z" transform="matrix(0.05 0 0 0.05 -239 -150)"/><path fill="#000" stroke="none" d="M 5086.93,3177.56 L 5038.76,3205.07 L 5030.83,3195.74 L 5082.93,3165.99 L 5086.93,3177.56 Z" transform="matrix(0.05 0 0 0.05 -239 -150)"/><path fill="#000" stroke="none" d="M 5194.34,3324.22 L 5190.34,3312.88 L 5201.28,3307.73 L 5206.09,3321.37 L 5194.34,3324.22 Z" transform="matrix(0.05 0 0 0.05 -239 -150)"/><path fill="#000" stroke="none" d="M 5249.46,3310.82 L 5241.67,3288.74 L 5252.62,3283.59 L 5261.21,3307.97 L 5249.46,3310.82 Z" transform="matrix(0.05 0 0 0.05 -239 -150)"/><path fill="#000" stroke="none" d="M 5304.58,3297.42 L 5293.01,3264.6 L 5303.95,3259.45 L 5316.33,3294.56 L 5304.58,3297.42 Z" transform="matrix(0.05 0 0 0.05 -239 -150)"/><path fill="#000" stroke="none" d="M 5359.71,3284.02 L 5344.35,3240.46 L 5355.29,3235.32 L 5371.46,3281.16 L 5359.71,3284.02 Z" transform="matrix(0.05 0 0 0.05 -239 -150)"/><path fill="#000" stroke="none" d="M 5414.83,3270.62 L 5395.68,3216.32 L 5406.63,3211.18 L 5426.58,3267.76 L 5414.83,3270.62 Z" transform="matrix(0.05 0 0 0.05 -239 -150)"/><path fill="#000" stroke="none" d="M 5139.01,3054.6 L 5151.04,3054.6 L 5151.04,3330.61 L 5145.02,3335.24 L 5139.01,3329.22 L 5139.01,3054.6 Z" transform="matrix(0.05 0 0 0.05 -239 -150)"/><path fill="#000" stroke="none" d="M 5151.04,3625.4 L 5139.01,3625.4 L 5139.01,3366.19 L 5145.02,3335.24 L 5151.04,3344.5 L 5151.04,3625.4 Z" transform="matrix(0.05 0 0 0.05 -239 -150)"/><path fill="#108080" stroke="none" d="M 5041.36,3335.24 A 103.669,103.669 0 1 0 5248.69,3335.24A 103.669,103.669 0 1 0 5041.36,3335.24Z" transform="matrix(0.05 0 0 0.05 -239 -150)"/><path fill="#1e8787" stroke="none" d="M 5042.55,3333.62 A 100.852,100.852 0 1 0 5244.26,3333.62A 100.852,100.852 0 1 0 5042.55,3333.62Z" transform="matrix(0.05 0 0 0.05 -239 -150)"/><path fill="#2c8f8f" stroke="none" d="M 5043.75,3332 A 98.0359,98.0359 0 1 0 5239.82,3332A 98.0359,98.0359 0 1 0 5043.75,3332Z" transform="matrix(0.05 0 0 0.05 -239 -150)"/><path fill="#3a9696" stroke="none" d="M 5044.95,3330.38 A 95.2195,95.2195 0 1 0 5235.39,3330.38A 95.2195,95.2195 0 1 0 5044.95,3330.38Z" transform="matrix(0.05 0 0 0.05 -239 -150)"/><path fill="#489d9d" stroke="none" d="M 5046.14,3328.76 A 92.4031,92.4031 0 1 0 5230.95,3328.76A 92.4031,92.4031 0 1 0 5046.14,3328.76Z" transform="matrix(0.05 0 0 0.05 -239 -150)"/><path fill="#54a4a4" stroke="none" d="M 5047.34,3327.14 A 89.5867,89.5867 0 1 0 5226.51,3327.14A 89.5867,89.5867 0 1 0 5047.34,3327.14Z" transform="matrix(0.05 0 0 0.05 -239 -150)"/><path fill="#61abab" stroke="none" d="M 5048.54,3325.52 A 86.7703,86.7703 0 1 0 5222.08,3325.52A 86.7703,86.7703 0 1 0 5048.54,3325.52Z" transform="matrix(0.05 0 0 0.05 -239 -150)"/><path fill="#6db1b1" stroke="none" d="M 5049.73,3323.9 A 83.9539,83.9539 0 1 0 5217.64,3323.9A 83.9539,83.9539 0 1 0 5049.73,3323.9Z" transform="matrix(0.05 0 0 0.05 -239 -150)"/><path fill="#78b7b7" stroke="none" d="M 5050.93,3322.28 A 81.1375,81.1375 0 1 0 5213.2,3322.28A 81.1375,81.1375 0 1 0 5050.93,3322.28Z" transform="matrix(0.05 0 0 0.05 -239 -150)"/><path fill="#83bdbd" stroke="none" d="M 5052.13,3320.66 A 78.3211,78.3211 0 1 0 5208.77,3320.66A 78.3211,78.3211 0 1 0 5052.13,3320.66Z" transform="matrix(0.05 0 0 0.05 -239 -150)"/><path fill="#8ec2c2" stroke="none" d="M 5053.32,3319.04 A 75.5047,75.5047 0 1 0 5204.33,3319.04A 75.5047,75.5047 0 1 0 5053.32,3319.04Z" transform="matrix(0.05 0 0 0.05 -239 -150)"/><path fill="#98c8c8" stroke="none" d="M 5054.52,3317.42 A 72.6883,72.6883 0 1 0 5199.9,3317.42A 72.6883,72.6883 0 1 0 5054.52,3317.42Z" transform="matrix(0.05 0 0 0.05 -239 -150)"/><path fill="#a1cdcd" stroke="none" d="M 5055.72,3315.8 A 69.8719,69.8719 0 1 0 5195.46,3315.8A 69.8719,69.8719 0 1 0 5055.72,3315.8Z" transform="matrix(0.05 0 0 0.05 -239 -150)"/><path fill="#aad2d2" stroke="none" d="M 5056.91,3314.18 A 67.0555,67.0555 0 1 0 5191.02,3314.18A 67.0555,67.0555 0 1 0 5056.91,3314.18Z" transform="matrix(0.05 0 0 0.05 -239 -150)"/><path fill="#b3d6d6" stroke="none" d="M 5058.11,3312.56 A 64.2391,64.2391 0 1 0 5186.59,3312.56A 64.2391,64.2391 0 1 0 5058.11,3312.56Z" transform="matrix(0.05 0 0 0.05 -239 -150)"/><path fill="#bbdbdb" stroke="none" d="M 5059.3,3310.94 A 61.4227,61.4227 0 1 0 5182.15,3310.94A 61.4227,61.4227 0 1 0 5059.3,3310.94Z" transform="matrix(0.05 0 0 0.05 -239 -150)"/><path fill="#c3dfdf" stroke="none" d="M 5060.5,3309.32 A 58.6063,58.6063 0 1 0 5177.71,3309.32A 58.6063,58.6063 0 1 0 5060.5,3309.32Z" transform="matrix(0.05 0 0 0.05 -239 -150)"/><path fill="#cae3e3" stroke="none" d="M 5061.7,3307.7 A 55.7898,55.7898 0 1 0 5173.28,3307.7A 55.7898,55.7898 0 1 0 5061.7,3307.7Z" transform="matrix(0.05 0 0 0.05 -239 -150)"/><path fill="#d1e6e6" stroke="none" d="M 5062.89,3306.08 A 52.9734,52.9734 0 1 0 5168.84,3306.08A 52.9734,52.9734 0 1 0 5062.89,3306.08Z" transform="matrix(0.05 0 0 0.05 -239 -150)"/><path fill="#d7eaea" stroke="none" d="M 5064.09,3304.46 A 50.157,50.157 0 1 0 5164.41,3304.46A 50.157,50.157 0 1 0 5064.09,3304.46Z" transform="matrix(0.05 0 0 0.05 -239 -150)"/><path fill="#ddeded" stroke="none" d="M 5065.29,3302.84 A 47.3406,47.3406 0 1 0 5159.97,3302.84A 47.3406,47.3406 0 1 0 5065.29,3302.84Z" transform="matrix(0.05 0 0 0.05 -239 -150)"/><path fill="#e2efef" stroke="none" d="M 5066.48,3301.22 A 44.5242,44.5242 0 1 0 5155.53,3301.22A 44.5242,44.5242 0 1 0 5066.48,3301.22Z" transform="matrix(0.05 0 0 0.05 -239 -150)"/><path fill="#e7f2f2" stroke="none" d="M 5067.68,3299.6 A 41.7078,41.7078 0 1 0 5151.1,3299.6A 41.7078,41.7078 0 1 0 5067.68,3299.6Z" transform="matrix(0.05 0 0 0.05 -239 -150)"/><path fill="#ecf4f4" stroke="none" d="M 5068.88,3297.98 A 38.8914,38.8914 0 1 0 5146.66,3297.98A 38.8914,38.8914 0 1 0 5068.88,3297.98Z" transform="matrix(0.05 0 0 0.05 -239 -150)"/><path fill="#f0f7f7" stroke="none" d="M 5070.07,3296.36 A 36.075,36.075 0 1 0 5142.22,3296.36A 36.075,36.075 0 1 0 5070.07,3296.36Z" transform="matrix(0.05 0 0 0.05 -239 -150)"/><path fill="#f3f8f8" stroke="none" d="M 5071.27,3294.74 A 33.2586,33.2586 0 1 0 5137.79,3294.74A 33.2586,33.2586 0 1 0 5071.27,3294.74Z" transform="matrix(0.05 0 0 0.05 -239 -150)"/><path fill="#f6fafa" stroke="none" d="M 5072.47,3293.12 A 30.4422,30.4422 0 1 0 5133.35,3293.12A 30.4422,30.4422 0 1 0 5072.47,3293.12Z" transform="matrix(0.05 0 0 0.05 -239 -150)"/><path fill="#f9fbfb" stroke="none" d="M 5073.66,3291.5 A 27.6258,27.6258 0 1 0 5128.92,3291.5A 27.6258,27.6258 0 1 0 5073.66,3291.5Z" transform="matrix(0.05 0 0 0.05 -239 -150)"/><path fill="#fbfdfd" stroke="none" d="M 5074.86,3289.88 A 24.8094,24.8094 0 1 0 5124.48,3289.88A 24.8094,24.8094 0 1 0 5074.86,3289.88Z" transform="matrix(0.05 0 0 0.05 -239 -150)"/><path fill="#fcfdfd" stroke="none" d="M 5076.06,3288.26 A 21.993,21.993 0 1 0 5120.04,3288.26A 21.993,21.993 0 1 0 5076.06,3288.26Z" transform="matrix(0.05 0 0 0.05 -239 -150)"/><path fill="#fefefe" stroke="none" d="M 5077.25,3286.64 A 19.1766,19.1766 0 1 0 5115.61,3286.64A 19.1766,19.1766 0 1 0 5077.25,3286.64Z" transform="matrix(0.05 0 0 0.05 -239 -150)"/><path fill="#fefefe" stroke="none" d="M 5078.45,3285.02 A 16.3602,16.3602 0 1 0 5111.17,3285.02A 16.3602,16.3602 0 1 0 5078.45,3285.02Z" transform="matrix(0.05 0 0 0.05 -239 -150)"/><path fill="none" stroke="#108080" stroke-width="12" d="M 5041.36,3335.24 A 103.669,103.669 0 1 0 5248.69,3335.24A 103.669,103.669 0 1 0 5041.36,3335.24Z" transform="matrix(0.05 0 0 0.05 -239 -150)"/></svg>

<svg height="34" viewBox="0 0 35 34" width="35" xmlns="http://www.w3.org/2000/svg"><g transform="matrix(.05 0 0 .05 -239 -150)"><path d="m5132.95 3341.25 12.07-6.01-6.01 30.95-55.57 138.23-52.17-29.63z"/><path d="m5139.01 3329.22 6.01 6.02-12.07 6.01h-298.57v-12.03z"/><path d="m5151.04 3344.5-6.02-9.26 6.02-4.63 276 72.09-19.92 56.6z"/><path d="m5125.35 3288.65-10.45 5.96-7.93-9.33 14.38-8.2z"/><path d="m5106.14 3233.1-29.31 16.74-7.93-9.33 33.24-18.98z"/><path d="m5086.93 3177.56-48.17 27.51-7.93-9.33 52.1-29.75z"/><path d="m5194.34 3324.22-4-11.34 10.94-5.15 4.81 13.64z"/><path d="m5249.46 3310.82-7.79-22.08 10.95-5.15 8.59 24.38z"/><path d="m5304.58 3297.42-11.57-32.82 10.94-5.15 12.38 35.11z"/><path d="m5359.71 3284.02-15.36-43.56 10.94-5.14 16.17 45.84z"/><path d="m5414.83 3270.62-19.15-54.3 10.95-5.14 19.95 56.58z"/><path d="m5139.01 3054.6h12.03v276.01l-6.02 4.63-6.01-6.02z"/><path d="m5151.04 3625.4h-12.03v-259.21l6.01-30.95 6.02 9.26z"/><path d="m5041.36 3335.24a103.669 103.669 0 1 0 207.33 0 103.669 103.669 0 1 0 -207.33 0z" fill="#108080"/><path d="m5042.55 3333.62a100.852 100.852 0 1 0 201.71 0 100.852 100.852 0 1 0 -201.71 0z" fill="#1e8787"/><path d="m5043.75 3332a98.036 98.036 0 1 0 196.07 0 98.036 98.036 0 1 0 -196.07 0z" fill="#2c8f8f"/><path d="m5044.95 3330.38a95.22 95.22 0 1 0 190.44 0 95.22 95.22 0 1 0 -190.44 0z" fill="#3a9696"/><path d="m5046.14 3328.76a92.403 92.403 0 1 0 184.81 0 92.403 92.403 0 1 0 -184.81 0z" fill="#489d9d"/><path d="m5047.34 3327.14a89.587 89.587 0 1 0 179.17 0 89.587 89.587 0 1 0 -179.17 0z" fill="#54a4a4"/><path d="m5048.54 3325.52a86.77 86.77 0 1 0 173.54 0 86.77 86.77 0 1 0 -173.54 0z" fill="#61abab"/><path d="m5049.73 3323.9a83.954 83.954 0 1 0 167.91 0 83.954 83.954 0 1 0 -167.91 0z" fill="#6db1b1"/><path d="m5050.93 3322.28a81.138 81.138 0 1 0 162.27 0 81.138 81.138 0 1 0 -162.27 0z" fill="#78b7b7"/><path d="m5052.13 3320.66a78.321 78.321 0 1 0 156.64 0 78.321 78.321 0 1 0 -156.64 0z" fill="#83bdbd"/><path d="m5053.32 3319.04a75.505 75.505 0 1 0 151.01 0 75.505 75.505 0 1 0 -151.01 0z" fill="#8ec2c2"/><path d="m5054.52 3317.42a72.688 72.688 0 1 0 145.38 0 72.688 72.688 0 1 0 -145.38 0z" fill="#98c8c8"/><path d="m5055.72 3315.8a69.872 69.872 0 1 0 139.74 0 69.872 69.872 0 1 0 -139.74 0z" fill="#a1cdcd"/><path d="m5056.91 3314.18a67.056 67.056 0 1 0 134.11 0 67.056 67.056 0 1 0 -134.11 0z" fill="#aad2d2"/><path d="m5058.11 3312.56a64.239 64.239 0 1 0 128.48 0 64.239 64.239 0 1 0 -128.48 0z" fill="#b3d6d6"/><path d="m5059.3 3310.94a61.423 61.423 0 1 0 122.85 0 61.423 61.423 0 1 0 -122.85 0z" fill="#bbdbdb"/><path d="m5060.5 3309.32a58.606 58.606 0 1 0 117.21 0 58.606 58.606 0 1 0 -117.21 0z" fill="#c3dfdf"/><path d="m5061.7 3307.7a55.79 55.79 0 1 0 111.58 0 55.79 55.79 0 1 0 -111.58 0z" fill="#cae3e3"/><path d="m5062.89 3306.08a52.973 52.973 0 1 0 105.95 0 52.973 52.973 0 1 0 -105.95 0z" fill="#d1e6e6"/><path d="m5064.09 3304.46a50.157 50.157 0 1 0 100.32 0 50.157 50.157 0 1 0 -100.32 0z" fill="#d7eaea"/><path d="m5065.29 3302.84a47.341 47.341 0 1 0 94.68 0 47.341 47.341 0 1 0 -94.68 0z" fill="#ddeded"/><path d="m5066.48 3301.22a44.524 44.524 0 1 0 89.05 0 44.524 44.524 0 1 0 -89.05 0z" fill="#e2efef"/><path d="m5067.68 3299.6a41.708 41.708 0 1 0 83.42 0 41.708 41.708 0 1 0 -83.42 0z" fill="#e7f2f2"/><path d="m5068.88 3297.98a38.891 38.891 0 1 0 77.78 0 38.891 38.891 0 1 0 -77.78 0z" fill="#ecf4f4"/><path d="m5070.07 3296.36a36.075 36.075 0 1 0 72.15 0 36.075 36.075 0 1 0 -72.15 0z" fill="#f0f7f7"/><path d="m5071.27 3294.74a33.259 33.259 0 1 0 66.52 0 33.259 33.259 0 1 0 -66.52 0z" fill="#f3f8f8"/><path d="m5072.47 3293.12a30.442 30.442 0 1 0 60.88 0 30.442 30.442 0 1 0 -60.88 0z" fill="#f6fafa"/><path d="m5073.66 3291.5a27.626 27.626 0 1 0 55.26 0 27.626 27.626 0 1 0 -55.26 0z" fill="#f9fbfb"/><path d="m5074.86 3289.88a24.809 24.809 0 1 0 49.62 0 24.809 24.809 0 1 0 -49.62 0z" fill="#fbfdfd"/><path d="m5076.06 3288.26a21.993 21.993 0 1 0 43.98 0 21.993 21.993 0 1 0 -43.98 0z" fill="#fcfdfd"/><path d="m5077.25 3286.64a19.177 19.177 0 1 0 38.36 0 19.177 19.177 0 1 0 -38.36 0z" fill="#fefefe"/><path d="m5078.45 3285.02a16.36 16.36 0 1 0 32.72 0 16.36 16.36 0 1 0 -32.72 0z" fill="#fefefe"/><path d="m5041.36 3335.24a103.669 103.669 0 1 0 207.33 0 103.669 103.669 0 1 0 -207.33 0z" fill="none" stroke="#108080" stroke-width="12"/></g></svg>
